sources/images/icons/thingiverse.svg

<svg width="192" height="192" viewBox="0 0 192 192" fill="none" xmlns="http://www.w3.org/2000/svg">
<path fill-rule="evenodd" clip-rule="evenodd" d="M149 0C172.748 0 192 19.2518 192 43V149C192 172.748 172.748 192 149 192H43C19.2518 192 0 172.748 0 149V43C0 19.2518 19.2518 0 43 0H149ZM96.5 31C60.8776 31 32 59.8776 32 95.5C32 131.122 60.8776 160 96.5 160C132.122 160 161 131.122 161 95.5C161 59.8776 132.122 31 96.5 31ZM96.5 40C127.152 40 152 64.8482 152 95.5C152 126.152 127.152 151 96.5 151C65.8482 151 41 126.152 41 95.5C41 64.8482 65.8482 40 96.5 40ZM65 67V83H88V138H104V83H128V67H65Z" fill="black"/>
</svg>

<svg xmlns="http://www.w3.org/2000/svg" width="192" height="192" fill="none" viewBox="0 0 192 192"><path fill="#000" fill-rule="evenodd" d="M149 0a43 43 0 0 1 43 43v106a43 43 0 0 1-43 43H43a43 43 0 0 1-43-43V43A43 43 0 0 1 43 0zM96.5 31a64.5 64.5 0 1 0 0 129 64.5 64.5 0 0 0 0-129m0 9a55.5 55.5 0 1 1 0 111 55.5 55.5 0 0 1 0-111M65 67v16h23v55h16V83h24V67z" clip-rule="evenodd"/></svg>
